markup/dist/img/mvp-dev.svg

<svg id="Слой_1" data-name="Слой 1" xmlns="http://www.w3.org/2000/svg" viewBox="0 0 512 512"><defs><style>.cls-2{fill:#4d4d4f}</style></defs><path d="M254.96 14.63l-44.27 51-6.19 109.5-22.5 39.5v22.8h143.5v-29.3l-24.6-38.5 4.1-99-50.04-56zM45.75 354.16h424.49v69.51H45.75z" fill="#c9dc7d"/><path class="cls-2" d="M256.69 459a9.56 9.56 0 0 0-9.52 9.52V493h-81.84a9.51 9.51 0 0 0 0 19H348a9.51 9.51 0 1 0 0-19h-81.8v-24.48a9.49 9.49 0 0 0-9.51-9.52zM56.41 433.08h400.45a22.88 22.88 0 0 0 22.89-22.89V134.55a22.88 22.88 0 0 0-22.89-22.89H344.8a9.51 9.51 0 1 0 0 19h112.06a4 4 0 0 1 4 4V410.4a4 4 0 0 1-4 4H56.41a4 4 0 0 1-4-4v-45.89H430.2a9.51 9.51 0 1 0 0-19h-47.77a57 57 0 0 0-56.23-48.71 9.51 9.51 0 0 0 0 19 38 38 0 0 1 37 29.69h-43.27a65 65 0 0 0-56-56.14v-66a9.52 9.52 0 1 0-19 0v66.37a65.12 65.12 0 0 0-53.62 55.72h-43.54a38 38 0 0 1 37-29.69 9.51 9.51 0 0 0 0-19 57 57 0 0 0-56.24 48.71h-80.9a9.68 9.68 0 0 0-4.6-1.26 9.55 9.55 0 0 0-9.51 9.51v56.55a23 23 0 0 0 22.89 22.82zm199.34-125.43a46 46 0 0 1 45.15 37.73h-90.21a45.73 45.73 0 0 1 45.06-37.73zM43 324.79a9.55 9.55 0 0 0 9.51-9.51V134.44a4 4 0 0 1 4-4h112.37a9.51 9.51 0 0 0 0-19H56.41a22.88 22.88 0 0 0-22.89 22.89v180.84a9.56 9.56 0 0 0 9.48 9.62z"/><circle class="cls-2" cx="255.85" cy="390.54" r="10.98"/><path class="cls-2" d="M171.91 238.24a9.55 9.55 0 0 0 9.52 9.51h19.44v21.95a9.51 9.51 0 0 0 19 0v-21.95h1.26a9.51 9.51 0 0 0 0-19h-30.3v-10.58a17 17 0 0 1 3.14-9.93l17.14-24.56a34.79 34.79 0 0 0 6.27-20V81.45a32.62 32.62 0 0 1 7.84-21.12l30.84-36.06 30.94 36a32.59 32.59 0 0 1 7.94 21.22v82.78a35 35 0 0 0 5.44 18.71l16 25.2a17.2 17.2 0 0 1 2.72 9.3v11.18h-28.76a9.49 9.49 0 0 0-1.15 18.92v22.02a9.52 9.52 0 0 0 19 0v-22h20.31a9.55 9.55 0 0 0 9.51-9.52v-20.64a36.59 36.59 0 0 0-5.65-19.44l-16-25.2a15.77 15.77 0 0 1-2.51-8.57V81.55a51.83 51.83 0 0 0-12.54-33.66L263.06 3.47a9.35 9.35 0 0 0-7.21-3.24 9.6 9.6 0 0 0-7.21 3.34L210.69 48a51.64 51.64 0 0 0-12.33 33.45v82.36a15.61 15.61 0 0 1-2.82 9.1l-17.15 24.56a36.09 36.09 0 0 0-6.48 20.8v20z"/></svg>

<svg id="Слой_1" data-name="Слой 1" xmlns="http://www.w3.org/2000/svg" viewBox="0 0 512 512"><defs><style>.cls-1{fill:#c9dc7d;}.cls-2{fill:#4d4d4f;}</style></defs><title>mvp-dev</title><polygon class="cls-1" points="254.96 14.63 210.69 65.63 204.5 175.13 182 214.63 182 237.43 325.5 237.43 325.5 208.13 300.9 169.63 305 70.63 254.96 14.63"/><rect class="cls-1" x="45.75" y="354.16" width="424.49" height="69.51"/><path class="cls-2" d="M256.69,459a9.56,9.56,0,0,0-9.52,9.52V493H165.33a9.51,9.51,0,0,0,0,19H348a9.51,9.51,0,1,0,0-19H266.2V468.52A9.49,9.49,0,0,0,256.69,459Z"/><path class="cls-2" d="M56.41,433.08H456.86a22.88,22.88,0,0,0,22.89-22.89V134.55a22.88,22.88,0,0,0-22.89-22.89H344.8a9.51,9.51,0,1,0,0,19H456.86a4,4,0,0,1,4,4V410.4a4,4,0,0,1-4,4H56.41a4,4,0,0,1-4-4V364.51H430.2a9.51,9.51,0,1,0,0-19H382.43a57,57,0,0,0-56.23-48.71,9.51,9.51,0,0,0,0,19,38,38,0,0,1,37,29.69H319.93a65,65,0,0,0-56-56.14v-66a9.52,9.52,0,1,0-19,0v66.37a65.12,65.12,0,0,0-53.62,55.72H147.77a38,38,0,0,1,37-29.69,9.51,9.51,0,0,0,0-19,57,57,0,0,0-56.24,48.71H47.63a9.68,9.68,0,0,0-4.6-1.26,9.55,9.55,0,0,0-9.51,9.51v56.55A23,23,0,0,0,56.41,433.08ZM255.75,307.65a46,46,0,0,1,45.15,37.73H210.69A45.73,45.73,0,0,1,255.75,307.65Z"/><path class="cls-2" d="M43,324.79a9.55,9.55,0,0,0,9.51-9.51V134.44a4,4,0,0,1,4-4H168.88a9.51,9.51,0,0,0,0-19H56.41a22.88,22.88,0,0,0-22.89,22.89V315.17A9.56,9.56,0,0,0,43,324.79Z"/><circle class="cls-2" cx="255.85" cy="390.54" r="10.98"/><path class="cls-2" d="M171.91,238.24a9.55,9.55,0,0,0,9.52,9.51h19.44V269.7a9.51,9.51,0,0,0,19,0V247.75h1.26a9.51,9.51,0,0,0,0-19H190.83V218.17a17,17,0,0,1,3.14-9.93l17.14-24.56a34.79,34.79,0,0,0,6.27-20V81.45a32.62,32.62,0,0,1,7.84-21.12l30.84-36.06,30.94,36a32.59,32.59,0,0,1,7.94,21.22v82.78a35,35,0,0,0,5.44,18.71l16,25.2a17.2,17.2,0,0,1,2.72,9.3v11.18H290.34a9.49,9.49,0,0,0-1.15,18.92V269.6a9.52,9.52,0,0,0,19,0v-22H328.5a9.55,9.55,0,0,0,9.51-9.52V217.44A36.59,36.59,0,0,0,332.36,198l-16-25.2a15.77,15.77,0,0,1-2.51-8.57V81.55a51.83,51.83,0,0,0-12.54-33.66L263.06,3.47A9.35,9.35,0,0,0,255.85.23a9.6,9.6,0,0,0-7.21,3.34L210.69,48a51.64,51.64,0,0,0-12.33,33.45v82.36a15.61,15.61,0,0,1-2.82,9.1l-17.15,24.56a36.09,36.09,0,0,0-6.48,20.8v20Z"/></svg>
